Numix-GalliumOS/24/actions/stock_task.svg

<?xml version="1.0" encoding="UTF-8" standalone="no"?>
<svg
   xmlns:dc="http://purl.org/dc/elements/1.1/"
   xmlns:cc="http://creativecommons.org/ns#"
   xmlns:rdf="http://www.w3.org/1999/02/22-rdf-syntax-ns#"
   xmlns:svg="http://www.w3.org/2000/svg"
   xmlns="http://www.w3.org/2000/svg"
   xmlns:sodipodi="http://sodipodi.sourceforge.net/DTD/sodipodi-0.dtd"
   xmlns:inkscape="http://www.inkscape.org/namespaces/inkscape"
   viewBox="0 0 24 24"
   id="svg2"
   version="1.1"
   inkscape:version="0.91 r13725"
   sodipodi:docname="stock_task.svg"
   width="24"
   height="24">
  <metadata
     id="metadata98">
    <rdf:RDF>
      <cc:Work
         rdf:about="">
        <dc:format>image/svg+xml</dc:format>
        <dc:type
           rdf:resource="http://purl.org/dc/dcmitype/StillImage" />
        <dc:title></dc:title>
      </cc:Work>
    </rdf:RDF>
  </metadata>
  <sodipodi:namedview
     pagecolor="#ffffff"
     bordercolor="#666666"
     borderopacity="1"
     objecttolerance="10"
     gridtolerance="10"
     guidetolerance="10"
     inkscape:pageopacity="0"
     inkscape:pageshadow="2"
     inkscape:window-width="1262"
     inkscape:window-height="982"
     id="namedview96"
     showgrid="true"
     inkscape:zoom="19.666668"
     inkscape:cx="8.7805802"
     inkscape:cy="10.194788"
     inkscape:window-x="8"
     inkscape:window-y="32"
     inkscape:window-maximized="0"
     inkscape:current-layer="svg2"
     inkscape:object-nodes="true"
     inkscape:snap-smooth-nodes="true"
     units="mm"
     borderlayer="false">
    <inkscape:grid
       type="xygrid"
       id="grid4360" />
  </sodipodi:namedview>
  <defs
     id="defs4">
    <path
       id="SVGCleanerId_0"
       d="m 14,12 20,0 c 1.105,0 2,0.895 2,2 l 0,20 c 0,1.105 -0.895,2 -2,2 l -20,0 c -1.105,0 -2,-0.895 -2,-2 l 0,-20 c 0,-1.105 0.895,-2 2,-2 m 0,0"
       inkscape:connector-curvature="0" />
    <clipPath
       id="clipPath-543229327">
      <g
         transform="translate(0,-1004.3622)"
         id="g3857">
        <path
           inkscape:connector-curvature="0"
           d="m -24,13 c 0,1.105 -0.672,2 -1.5,2 -0.828,0 -1.5,-0.895 -1.5,-2 0,-1.105 0.672,-2 1.5,-2 0.828,0 1.5,0.895 1.5,2 z"
           transform="matrix(15.333333,0,0,11.5,414.99999,878.8622)"
           style="fill:#1890d0"
           id="path3859" />
      </g>
    </clipPath>
  </defs>
  <path
     sodipodi:nodetypes="cssssssc"
     id="path3893"
     style="fill:#e6b07f;fill-opacity:1;fill-rule:evenodd;stroke:none"
     d="m 18,5 c 1,0 1,0 1,1 l 0,14 c 0,1 0,1 -1,1 L 6,21 C 5,21 5,21 5,20 L 5,6 C 5,5 5,5 6,5"
     inkscape:connector-curvature="0" />
  <path
     sodipodi:nodetypes="cccc"
     id="path3895"
     style="fill:#ffffff;fill-opacity:1;fill-rule:nonzero;stroke:none"
     d="m 17,4.9999995 -10,0 L 7,19 17,19"
     inkscape:connector-curvature="0" />
  <path
     sodipodi:nodetypes="cccc"
     id="path3897"
     style="fill:#aaaaaa;fill-opacity:1;fill-rule:nonzero;stroke:none"
     d="m 8.0000004,3 0,3.0714283 7.9999996,0 L 16,3"
     inkscape:connector-curvature="0" />
  <path
     sodipodi:nodetypes="cccc"
     id="path3899"
     style="fill:#868686;fill-opacity:1;fill-rule:nonzero;stroke:none"
     d="m 8,15 0,1 8,0 0,-1"
     inkscape:connector-curvature="0" />
  <path
     sodipodi:nodetypes="cccc"
     id="path3901"
     style="fill:#868686;fill-opacity:1;fill-rule:nonzero;stroke:none"
     d="m 8,17 0,1 8,0 0,-1"
     inkscape:connector-curvature="0" />
  <g
     id="g34"
     transform="translate(1,-25)" />
  <path
     inkscape:connector-curvature="0"
     d="M 8.0000008,11 8,12 15.999999,12 16,11"
     style="fill:#868686;fill-opacity:1;fill-rule:nonzero;stroke:none"
     id="path3899-5"
     sodipodi:nodetypes="cccc" />
  <path
     inkscape:connector-curvature="0"
     d="M 8.0000008,13 8,14 15.999999,14 16,13"
     style="fill:#868686;fill-opacity:1;fill-rule:nonzero;stroke:none"
     id="path3901-7"
     sodipodi:nodetypes="cccc" />
  <path
     inkscape:connector-curvature="0"
     d="m 8.0000024,6.9999995 -10e-7,1 7.9999986,0 1e-6,-1"
     style="fill:#868686;fill-opacity:1;fill-rule:nonzero;stroke:none"
     id="path3899-5-9"
     sodipodi:nodetypes="cccc" />
  <path
     inkscape:connector-curvature="0"
     d="m 8.0000024,8.9999995 -10e-7,1 7.9999986,0 1e-6,-1"
     style="fill:#868686;fill-opacity:1;fill-rule:nonzero;stroke:none"
     id="path3901-7-2"
     sodipodi:nodetypes="cccc" />
</svg>

<svg xmlns="http://www.w3.org/2000/svg" viewBox="0 0 24 24">
 <path d="m 18,5 c 1,0 1,0 1,1 l 0,14 c 0,1 0,1 -1,1 L 6,21 C 5,21 5,21 5,20 L 5,6 C 5,5 5,5 6,5" style="fill:#e6b07f;fill-opacity:1;stroke:none;fill-rule:evenodd"/>
 <path d="m 17 5 -10 0 l 0 14 10 0" style="fill:#fff;fill-opacity:1;stroke:none;fill-rule:nonzero"/>
 <path d="m 8 3 0 3.071 8 0 l 0 -3.071" style="fill:#aaa;fill-opacity:1;stroke:none;fill-rule:nonzero"/>
 <path d="m 8 15 0 1 8 0 0 -1" style="fill:#868686;fill-opacity:1;stroke:none;fill-rule:nonzero"/>
 <path d="m 8 17 0 1 8 0 0 -1" style="fill:#868686;fill-opacity:1;stroke:none;fill-rule:nonzero"/>
 <path d="m 8 11 0 1 8 0 0 -1" style="fill:#868686;fill-opacity:1;stroke:none;fill-rule:nonzero"/>
 <path d="m 8 13 0 1 8 0 0 -1" style="fill:#868686;fill-opacity:1;stroke:none;fill-rule:nonzero"/>
 <path d="m 8 7 0 1 8 0 0 -1" style="fill:#868686;fill-opacity:1;stroke:none;fill-rule:nonzero"/>
 <path d="m 8 9 0 1 8 0 0 -1" style="fill:#868686;fill-opacity:1;stroke:none;fill-rule:nonzero"/>
</svg>
